!!!COM: Robert Schumann
!!!CNT: Deutsch
!!!TXO: Deutsch
!!!OTL: Ich hab' in mich gesogen
!!!LYR: Ru2ckert
!!!OPR: Zwo2lf Gedichte aus F. Ru2ckerts Liebesfru2hling
!!!OPS: Op.37
!!!ONM: No. 5
!!!ENC: Ben Fuhrman
!!!YOR: Schumann Lieder - Max Friedlaender, ed.,
!!!YOR: New York: C. F. Peters, Vol. 2
!!!ODT: 1841/
!!NB: Vocal melody and text only encoded.
!!NB: First instance of melodic material only encoded.
**kern	**silbe
*clefG2	*
*k[b-]	*
*M4/4	*
!!created: 07/12/06 10:25
!!proofed and posted: 07/12/06 10:25
!!edit time: 45 minutes
=4	=4
2r	.
4r	.
8r	.
{8c	{Ich
=5	=5
8.f	hab'
16f	in
8f	mich
8g	ge-
8e	-so-
8c	-gen
8r	.
16d	den
16e	|
=6	=6
8f	Fru2h-
8g	-lings
8a	treu
8b-	und
4g}	lieb,}
4r	.
=7	=7
{8g	{dass
16g	er,
16g	der
8g	Welt
8a	ent-
8f#	-flo-
8d}	-gen,}
4r	.
=8	=8
{8g	hier
16a	in
16a	der
8b-	Brust
8e	mir
4fn}	blieb.}
4r	.
=9	=9
{8g	{Hier
16cc	sind
16cc	die
8bn	blau-
8a	-en
8dd	Lu2f-
8g}	-te,}
4r	.
=10	=10
{8a	{hier
16dd	sind
16dd	die
8cc	gru2-
8bn	-nen
4cc}	Au'n,}
8r	.
16r	.
{16g	{die
=11	=11
8.g	Blu-
16cc	-men
8bn	hier,
8a	die
8dd	Du2f-
8g}	-te,}
8.r	.
{16a	{der
=12	=12
8.a	blu2hn-
16dd	-de
8cc	Ro-
8bn	-sen-
4cc}	-zaun.}
8r	.
{8b-	{Und
=13	=13
8.a	hier
16a	am
8dd	Bu-
8a	-sen
8b-	leh-
8dd}	-net}
8r	.
{8cc	{mit
=14	=14
8.bn	su2-
16bn	-ssem
8ee	Lie-
8dd	-bes-
4cc}	-ach}
8r	.
{8dd	{die
=15	=15
8.cc	Lieb-
16cc	-ste,
8cc	die
8ff	sich
(8ff	seh-
8dd)	|
8cc	-net
8b-	den
=16	=16
8.a	Fru2h-
16ee-	-lings-
8dd	-won-
8f#	-nen
4g}	nach.}
8r	.
{8a	{Sie
=17	=17
8.dd	lehnt
16b-	sich
8a	an,
8a	zu
8dd	lau-
8a}	-schen,}
8r	.
{8g	{und
=18	=18
8.cc	ho2rt
16a	in
8g	stil-
8g	-ler
4cc}	Lust}
8r	.
{8f	{die
=19	=19
8.b-	Fru2h-
16g	-ling-
8f	-stro2-
8f	-me
4b-	rau-
8a	-schen
8f#	in
=20	=20
8g	ih-
8e	-res
(8fn	Dich
16a)	|
16g	-ters
4g}	Brust.}
8r	.
{8c	{Da
=21	=21
8.f	quel-
16f	-len
8f	auf
8g	die
8e	Lie-
8c}	-der}
8r	.
{16d	{und
16e	|
=22	=22
8f	stro2-
8g	-men
8a	u2-
8b	-ber
4g}	sie}
8r	.
{8d	{den
=23	=23
8.g	voll-
16g	-sten
8g	Fru2h-
8a	-lings
8f#	nie-
8d}	-der,}
4r	.
=24	=24
{8g	den
16a	mir
16a	der
8b-	Gott
8e	ver-
4fn}	-lieh.}
8r	.
{8cc	{Und
=25	=25
8.dd	wie
16b-	sie
8g	da
8cc	von
8a	trun-
4.f	-ken
=26	=26
8dd	um-
16dd	blic-
16b-	-ket
8g	rings
8cc	im
4a}	Raum,}
8r	.
{8f	{blu2ht
=27	=27
8f	auch
8dd	von
8cc#	ih-
8ccn	-ren
4b-	Fun-
8a	-ken
8g	die
=28	=28
8f	Welt,
8dd	ein
8.cc	Fru2h-
16e	-lings
4f}	traum.}
4r	.
==	==
*-	*-
